static/assets/images/tokens/bnsol.svg

<svg width="256" height="256" viewBox="0 0 256 256" fill="none" xmlns="http://www.w3.org/2000/svg">
<path d="M128 256C198.692 256 256 198.692 256 128C256 57.3075 198.692 0 128 0C57.3075 0 0 57.3075 0 128C0 198.692 57.3075 256 128 256Z" fill="black"/>
<path d="M128 256C198.692 256 256 198.692 256 128C256 57.3075 198.692 0 128 0C57.3075 0 0 57.3075 0 128C0 198.692 57.3075 256 128 256Z" fill="#FAC315"/>
<path d="M60.9589 206.16L53.4754 213.644C96.1904 251.127 160.322 251.127 203.037 213.644L195.554 206.16C156.989 239.544 99.5233 239.544 60.9589 206.16Z" fill="white"/>
<path fill-rule="evenodd" clip-rule="evenodd" d="M213.644 53.4755C251.127 96.1905 251.127 160.322 213.644 203.037L206.16 195.554C239.544 156.989 239.544 99.5233 206.16 60.959L213.644 53.4755ZM53.4754 42.8689C96.1904 5.38551 160.322 5.38552 203.037 42.8689L195.554 50.3524C156.989 16.9685 99.5233 16.9685 60.9589 50.3524L53.4754 42.8689ZM42.8688 203.037C5.38543 160.322 5.38543 96.1905 42.8688 53.4755L50.3523 60.959C16.9684 99.5233 16.9684 156.989 50.3523 195.554L42.8688 203.037Z" fill="white"/>
<path d="M84.9584 154.087C85.7368 153.309 86.8071 152.855 87.9423 152.855H190.885C192.766 152.855 193.707 155.124 192.377 156.452L172.042 176.769C171.263 177.546 170.193 178 169.058 178H66.1147C64.2336 178 63.293 175.732 64.6228 174.403L84.9584 154.087Z" fill="#3B3213"/>
<path d="M84.9584 78.2313C85.7692 77.4536 86.8395 77 87.9423 77H190.885C192.766 77 193.707 79.2682 192.377 80.5967L172.042 100.913C171.263 101.691 170.193 102.145 169.058 102.145H66.1147C64.2336 102.145 63.293 99.8765 64.6228 98.548L84.9584 78.2313Z" fill="#3B3213"/>
<path d="M172.042 115.916C171.263 115.138 170.193 114.685 169.058 114.685H66.1147C64.2336 114.685 63.293 116.953 64.6228 118.281L84.9584 138.598C85.7368 139.376 86.8071 139.829 87.9423 139.829H190.885C192.766 139.829 193.707 137.561 192.377 136.233L172.042 115.916Z" fill="#3B3213"/>
</svg>

<svg xmlns="http://www.w3.org/2000/svg" fill="none" viewBox="0 0 256 256"><path fill="#000" d="M128 256c70.692 0 128-57.308 128-128S198.692 0 128 0 0 57.308 0 128s57.308 128 128 128"/><path fill="#FAC315" d="M128 256c70.692 0 128-57.308 128-128S198.692 0 128 0 0 57.308 0 128s57.308 128 128 128"/><path fill="#fff" d="m60.959 206.16-7.484 7.484c42.715 37.483 106.847 37.483 149.562 0l-7.483-7.484c-38.565 33.384-96.03 33.384-134.595 0"/><path fill="#fff" fill-rule="evenodd" d="M213.644 53.476c37.483 42.715 37.483 106.846 0 149.561l-7.484-7.483c33.384-38.565 33.384-96.03 0-134.595zM53.475 42.869c42.715-37.483 106.847-37.483 149.562 0l-7.483 7.483c-38.565-33.383-96.03-33.383-134.595 0zM42.87 203.037c-37.484-42.715-37.484-106.846 0-149.562l7.483 7.484c-33.384 38.564-33.384 96.03 0 134.595z" clip-rule="evenodd"/><path fill="#3B3213" d="M84.958 154.087a4.22 4.22 0 0 1 2.984-1.232h102.943c1.881 0 2.822 2.269 1.492 3.597l-20.335 20.317a4.23 4.23 0 0 1-2.984 1.231H66.115c-1.881 0-2.822-2.268-1.492-3.597zm0-75.856C85.77 77.454 86.84 77 87.942 77h102.943c1.881 0 2.822 2.268 1.492 3.597l-20.335 20.316a4.22 4.22 0 0 1-2.984 1.232H66.115c-1.881 0-2.822-2.269-1.492-3.597zm87.084 37.685a4.22 4.22 0 0 0-2.984-1.231H66.115c-1.881 0-2.822 2.268-1.492 3.596l20.335 20.317a4.22 4.22 0 0 0 2.984 1.231h102.943c1.881 0 2.822-2.268 1.492-3.596z"/></svg>
